X: 20038
T: Jimmy Duffy's
R: barndance
M: 4/4
K: Gmajor
|:ga ba g2 ge|dB GA B2 BA|GA Bc de fg|gf fe d2 Bd|
ga ba g2 ge|dB GA B2 BA|Gg fe dc BA|G2 GF GA Bd:|
e2 ec d2 dB|GA GE G2 EF|GA Bc de fg|gf fe d2 Bd|
e2 ec d2 dB|GA GE G2 EF|GA Bc de fg|a2 d2 g2 cd:|

